static/assets/images/exchanges/coinbase.svg

<svg width="256" height="256" viewBox="0 0 256 256" fill="none" xmlns="http://www.w3.org/2000/svg">
<path d="M128.446 191.961C93.0704 191.961 64.4856 163.297 64.4856 128C64.4856 92.7033 93.1494 64.0395 128.446 64.0395C160.111 64.0395 186.405 87.0969 191.459 117.34H255.893C250.445 51.6422 195.486 0 128.367 0C57.6948 0 0.367188 57.3276 0.367188 128C0.367188 198.672 57.6948 256 128.367 256C195.486 256 250.445 204.358 255.893 138.66H191.38C186.326 168.903 160.111 191.961 128.446 191.961Z" fill="#0052FF"/>
</svg>

<svg xmlns="http://www.w3.org/2000/svg" fill="none" viewBox="0 0 256 256"><path fill="#0052FF" d="M128.446 191.961c-35.376 0-63.96-28.664-63.96-63.961s28.663-63.96 63.96-63.96c31.665 0 57.959 23.057 63.013 53.3h64.434C250.445 51.642 195.486 0 128.367 0c-70.672 0-128 57.328-128 128s57.328 128 128 128c67.119 0 122.078-51.642 127.526-117.34H191.38c-5.054 30.243-31.269 53.301-62.934 53.301"/></svg>
